X:1
T:Lest We Forget
T:Melita (Lest We Forget)
T: John B Dykes 1823-1876 
C:Dykes 1823-70
%%score 1 2 3 4
L:1/8
Q:1/2=80
M:4/2
K:Bb
V:1 treble transpose=-2 nm="Trumpet" snm="Tpt."
V:2 treble transpose=-2 nm="Flugelhorn" snm="Flghn."
V:3 bass nm="Trombone" snm="Tbn."
V:4 bass nm="Tuba" snm="Tba."
V:1
[K:C] (C4 || E6 E2 G4 G4 | A4 A4 G4 G4 | c4 d4 B4 G4 | G4 ^F4 !breath!!fermata!G4) (D4 | %5
 F6 F2 E4 E4 | G6 G2 ^F4 A4 | G4 ^F4 E4 A4 | G4 ^F4 !breath!!fermata!E4) (E4 | E6 E2 F4 F4 | %10
 ^F6 F2 !breath!G4) (G4 | G4 A4 G4 E4 | D6 C2 !fermata!C4) |] %13
V:2
[K:C] (C4 || C6 C2 E4 E4 | F4 F4 E4 G4 | G6 ^F2 G6 E2 | D4 D4 !breath!!fermata!D4) (B,4 | %5
 D6 D2 C4 C4 | E6 E2 D4 ^F4 | E6 ^D2 E6 ^F2 | E4 ^D4 !breath!!fermata!E4) (B,4 | _B,6 B,2 A,4 C4 | %10
 C6 C2 !breath!B,4) (=F4 | E4 D4 E4 C4 | B,6 C2 !fermata!C4) |] %13
V:3
 (D,4 || F,6 F,2 B,6 A,2 | G,2 A,2 B,2 C2 D4 C4 | B,4 G,4 A,4 C2 B,2 | %4
 G,4 G,4 !breath!!fermata!A,4) (F,4 | F,6 F,2 F,4 F,4 | G,6 G,2 G,4 A,4 | A,4 G,4 A,4 B,4 | %8
 A,4 A,4 !breath!!fermata!F,4) (F,4 | F,6 F,2 E,4 G,4 | G,6 G,2 !breath!F,4) (C4 | %11
 B,4 B,4 B,4 F,4 | E,6 D,2 !fermata!D,4) |] %13
V:4
 (D,4 || B,,6 B,,2 B,,4 B,,4 | E,2 F,2 G,2 A,2 B,4 A,4 | G,4 C,4 F,4 A,,2 B,,2 | %4
 C,4 C,4 !breath!!fermata!F,4) (F,4 | A,,6 A,,2 B,,4 B,,4 | =B,,6 B,,2 C,4 ^C,4 | %7
 D,4 =E,4 F,4 G,4 | A,4 A,4 !breath!!fermata!D,4) (D,4 | B,,6 B,,2 E,4 E,4 | %10
 C,6 C,2 !breath!F,4) (A,,4 | B,,4 =E,,4 F,,4 F,,4 | F,,6 B,,2 !fermata!B,,4) |] %13

